!!!ONB: MCCC : ILB0192_01 : Extracted Monophonic Melody
!!!COM: Beethoven, Ludwig van
!!!OPR: Piano Sonata No.31
!!!OMV: 1
!!!SCT: Op.110
!!!ODT: 1821///
**kern
*thru
*staff1
*clefG2
*k[b-e-a-d-]
*A-:
*M3/4
*MM72
=1
4.cc
8a-
8.a-
16a-
=2
4dd-
2b-
=3
4.ee-
8dd-
8ee-
8ff
=4
8.ee-
16dd
8dd-[
32dd-]
32cc
32dd-
32ee-
8ff
16ee-
16dd-
=5
4.cc
4ee-
8aa-
=6
4aa-
2gg
=7
4.bb-
4gg
8ee-
=8
4ee-
2aa-
=9
4.aa-
4ccc
8eee-
=10
4.eee-
8ddd-
8eee-
8fff
=11
8fff
4eee-
16ddd-
16ccc
16eee-
16ddd-
8gg
=12
32aa-
32eee-
32ccc
32eee-
32aaa-
32eee-
32ccc
32eee-
32aa-
32ee-
32cc
32ee-
32a-
32e-
32c
32e-
32A-
32E-
32C
32E-
32AA-
32E-
32C
32E-
=13
32GG
32E-
32D-
32E-
32G
32E-
32D-
32E-
32G
32e-
32d-
32e-
32g
32e-
32d-
32e-
32g
32ee-
32dd-
32ee-
32gg
32ee-
32dd-
32ee-
=14
32aa-
32eee-
32ccc
32eee-
32aaa-
32eee-
32ccc
32eee-
32aa-
32ee-
32cc
32ee-
32a-
32e-
32c
32e-
32A-
32E-
32C
32E-
32AA-
32E-
32C
32E-
=15
32BB-
32E-
32D-
32E-
32B-
32E-
32D-
32E-
32B-
32e-
32d-
32e-
32b-
32e-
32d-
32e-
32b-
32ee-
32dd-
32ee-
32bb-
32ee-
32dd-
32ee-
=16
32cc
32aa-
32ee-
32aa-
32ccc
32aa-
32ee-
32aa-
32cc
32a-
32e-
32a-
32c
32A-
32E-
32A-
32C
32A-
32E-
32A-
32c
32A-
32E-
32A-
=17
32D
32B-
32A-
32B-
32d
32B-
32A-
32B-
32d
32b-
32a-
32b-
32dd
32b-
32a-
32b-
32ee-
32bb-
32gg
32bb-
32eee-
32bb-
32gg
32bb-
=18
32ff
32bb-
32aa-
32bb-
32fff
32bb-
32aa-
32bb-
32ff
32bb-
32aa-
32bb-
32fff
32bb-
32aa-
32bb-
32gg
32eee-
32bb-
32eee-
32ggg
32eee-
32bb-
32eee-
=19
*8va
32aa-
32aaa-
32eee-
32aaa-
32aa
32aaa
32eee-
32aaa
32aa
32aaa
32eee-
32aaa
32bb-
32bbb-
32eee-
32bbb-
32bb-
32bbb-
32eee-
32bbb-
32bb
32bbb
32eee-
32bbb
=20
8.cccc
16ccc
8.bbb-
16bb-
8.aaa-
16aaa
=21
8.bbb-
16bb-
8.aaa-
16aa-
16ggg
16gg
16aa-
16bb-
*X8va
=22
16ddd
8ccc
16cc
16ccc
8bb-
16b-
16bb-
8aa-
16aa
=23
16ccc
8bb-
16b-
16bb-
8aa-
16a-
16gg
16ff
16gg
16ff
=24
4gg
4ff
16bb-
16aa
16bb-
16aa
=25
4bb-
4.ccc
8ccc
=26
8r
8ddd
8r
8eee-
8r
8fff[
=27
8fff]
8ggg
8aaa-
8aaa
[4bbb-
=28
8bbb-]
8g
8.r
16g
16a-
16b-
16cc
16dd
=29
8ee-
8b-
8.r
16dd
16ee-
16ff
16gg
16aa-
=30
8bb-
8ee-
8.r
*8va
16eee-
16fff
16ggg
16aaa-
16bbb-
=31
4cccc
*X8va
8.r
16f
8b-
16r
16b-
=32
4a
4a-
16g
16eee-
16ddd
16ddd-
=33
32ccc
32bb-
32aa-
32gg
32gg-
32ff
32ee
32ee-
32dd
32dd-
32cc
32cc-
32b-
32a-
32g
32f
8b-
16r
16b-
=34
8b-
16cc
16b-
16a-
16g
16f
16g
4a-
=35
16g
16B-
16c
16B-
16A-
16G
16F
16G
16e-
16c
16e-
16d
=36
16f
16d
16f
16e-
16a-
16f
16a-
16g
16cc
16a
16cc
16b-
=37
16ff
16dd
16ff
16ee-
16aa-
16ff
16aa-
16gg
16ccc
16aa
16ccc
16bb-
=38
2eee-
4ee-
=39
2ddd-
4dd-
=40
4.ccc
8aa-
8.aa-
16aa-
=41
4ddd-
2bb-
=42
4.bb-
8gg
8.gg
16gg
=43
4ccc
2aa-
=44
4.aa-
8ff
8.ff
16ff
=45
4bb-
2gg
=46
4.aa-
8ff
8.ff
16ff
=47
4gg-
2ee-
=48
4.ff
8dd-
8.dd-
16dd-
=49
4gg-
2ee-
=50
4.ff
8dd-
8.dd-
16dd-
=51
[4ee-
2ee-]
=52
4.dd-
8b-
8.b-
16b-
=53
4ee-
2cc
=54
4.dd-
8b-
8.b-
16b-
=55
4dd-
4.b-
8b
=56
4.cc
8a-
8.a-
16a-
=57
4dd-
2b-
=58
4.ee-
8dd
8ee-
8ff
=59
8ee-
8dd
4.dd-
16cc
16b-
=60
32a-
32ee-
32cc
32ee-
*8va
32aa-
32eee-
32ccc
32eee-
32aaa-
32aa-
32aaa-
32aa-
32aaa-
32aa-
32aaa-
32aa-
32aaa-
32aa-
32aaa-
32aa-
32aaa-
32aa-
32aaa-
32aa-
=61
32aaa-
32aa-
32aaa-
32aa-
32aaa-
32aa-
32aaa-
32aa-
32aaa-
32aa-
32aaa-
32aa-
32aaa-
32aa-
32aaa-
32aa-
32aaa-
32aa-
32aaa-
32aa-
32aaa-
32aa-
32aaa-
32aa-
=62
8aaa-
16ggg-
16fff[
16fff]
32eee-
32ddd
32eee-
32fff
32ggg-
32fff
32eee-
32fff
32eee-
32ddd-
32ccc
32bb-
32aa-
32gg-
*X8va
=63
4.ff
4aa-
8ddd-
=64
4ddd-
2ccc
=65
4.eee-
4ccc
8aa-
=66
4aa-
4.ddd-
8ddd-
=67
4ccc#
4.ccc#
8ccc#
=68
4ccc#
4.bb
8bb
=69
*k[f#c#g#d#]
8bb
[8aa
32aa]
32bb
32aa
32gg#
16aa
16bb
32aa
32bb
16ccc#
16bb
16aa
=70
32gg#
32eee
32bb
32eee
32ggg#
32eee
32bb
32eee
32gg#
32ee
32b
32ee
32g#
32e
32B
32e
8r
32GG#
32E
32BB
32E
=71
32DD#
32BB
32AA
32BB
32D#
32BB
32AA
32BB
32D#
32B
32A
32B
32d#
32B
32A
32B
32d#
32b
32a
32b
32dd#
32b
32a
32b
=72
32ee
32bb
32gg#
32bb
32eee
32bb
32gg#
32bb
32ee
32b
32g#
32b
32e
32B
32G#
32B
32E
32B
32G#
32B
32e
32B
32G#
32B
=73
32F#
32B
32A
32B
32f#
32B
32A
32B
32f#
32b
32a
32b
32ff#
32b
32a
32b
32ff#
32bb
32aa
32bb
32fff#
32bb
32aa
32bb
=74
*8va
32gg#
32ggg#
32bb
32ggg#
32gg#
32ggg#
32bb
32ggg#
32gg#
32ggg#
32bb
32ggg#
32aa
32aaa
32eee
32aaa
32aa
32aaa
32eee
32aaa
32aa#
32aaa#
32eee
32aaa#
=75
32aa#
32aaa#
32eee
32aaa#
32bb
32bbb
32eee
32bbb
32bb
32bbb
32eee
32bbb
32bb#
32bbb#
32eee
32bbb#
32bb#
32bbb#
32eee
32bbb#
32ccc#
32cccc#
32eee
32cccc#
*X8va
=76
8.ccc#
16cc#
4b
8.aa
16aa#
=77
8.bb
16b
8.aa
16a
8gg#
8gg
=78
*k[b-e-a-d-]
4.gg
8aa-
16bb-
16ccc
16ddd-
16eee-
=79
8.fff
16ff
8.eee-
16ee-
8.ddd-
16ddd
=80
8.eee-
16ee-
8.ddd-
16dd-
16ccc
16cc
16dd-
16ee-
=81
16gg
16ee
16ff
16f
16ff
16dd
16ee-
16e-
16ee-
16cc
16dd-
16d-
=82
16ff
16dd
16ee-
16e-
16ee-
16cc
16dd-
16d-
16cc
16b-
16cc
16b-
=83
4cc
4b-
16ee-
16dd
16ee-
16dd
=84
4ee-
4.ff
8ff
=85
8r
8gg
8r
8aa-
8r
8bb-[
=86
8bb-]
8ccc
8ddd-
8ddd
[4eee-
=87
8eee-]
8c
8.r
16c
16d-
16e-
16f
16g
=88
8a-
8e-
8.r
16g
16a-
16b-
16cc
16dd-
=89
8ee-
8a-
8.r
16aa-
16bb-
16ccc
16ddd-
16eee-
=90
4fff
8.r
16b-
8ee-
16r
16ee-
=91
4dd
4dd-
16cc
16aaa-
16ggg
16ggg-
=92
32fff
32eee-
32ddd-
32ccc
32ccc-
32bb-
32aa
32aa-
32gg
32gg-
32ff
32ee
32ee-
32dd-
32cc
32b-
8ee-
16r
16ee-
=93
8ee-
16ff
16ee-
16dd-
16cc
16b-
16cc
4dd-
=94
16cc
16e-
16f
16e-
16d-
16c
16B-
16c
16a-
16f
16a-
16g
=95
16b-
16g
16b-
16a-
16dd-
16b
16dd-
16cc
16ff
16dd
16ff
16ee-
=96
16bb-
16gg
16bb-
16aa-
16ddd-
16bb
16ddd-
16ccc
16fff
16ddd
16fff
16eee-
=97
16eee-
16ccc
16eee-
16ddd
*8va
16cccc
16bbb
16cccc
16bbb
16eee-
16ccc
16eee-
16ddd
=98
16fff
16ddd
16fff
16eee-
16cccc
16aaa
16cccc
16bbb-
16fff
16ddd
16fff
16eee-
=99
16eee-
16ccc
16eee-
16ddd
16cccc
16aaa
16cccc
16bbb-
16eee-
16ccc
16eee-
16ddd
=100
16fff
16ddd
16fff
16eee-
2fff[
=101
8fff]
8eee-
*X8va
2ee-[
=102
8ee-]
8dd-
2dd-[
=103
8dd-]
8cc
2cc[
=104
8cc]
8ee-
2ee-
=105
32a-
32ee-
32cc
32ee-
32aa-
32ee-
32cc
32ee-
32a-
32e-
32c
32e-
32A-
32E-
32C
32E-
32AA-
32EE-
32CC
32EE-
8r
=106
32GG
32E-
32D-
32E-
32G
32E-
32D-
32E-
32G
32e-
32d-
32e-
32g
32e-
32d-
32e-
32g
32ee-
32dd-
32ee-
32gg
32ee-
32dd-
32ee-
=107
32aa-
32eee-
32ccc
32eee-
32aaa-
32eee-
32ccc
32eee-
32aa-
32ee-
32cc
32ee-
32a-
32e-
32c
32e-
32A-
32E-
32C
32E-
32AA-
32E-
32C
32E-
=108
32BB-
32E-
32D-
32E-
32B-
32E-
32D-
32E-
32B-
32e-
32d-
32e-
32b-
32e-
32d-
32e-
32b-
32ee-
32dd-
32ee-
32bb-
32ee-
32dd-
32ee-
=109
32cc
32aa-
32ee-
32aa-
32ccc
32aa-
32ee-
32aa-
32dd-
32aa-
32ff
32aa-
32ddd-
32aa-
32ff
32aa-
32ee-
32eee-
32aa-
32ccc
32ee
32eee
32aa-
32eee
=110
32ff
32ddd-
32aa-
32ddd-
32fff
32ddd-
32aa-
32ddd-
32gg
32eee-
32ddd-
32eee-
32ggg
32eee-
32ddd-
32eee-
32gg
32ggg
32eee-
32ggg
32aa-
32aaa-
32eee-
32aaa-
=111
[4ff
16ff]
16b-
16cc
16dd-
8g
[8ee-
=112
16ee-]
16dd-
16cc
16ccc
16bb-
16gg
16bb-
16aa-
16ccc
16aa-
16ee-
16ee
=113
[4ff
16ff]
16b-
16cc
16dd-
8g
8ee-
=114
4cc
4.dd-
8dd-
=115
2dd-
8cc
8r
=116
8cc
8r
4r
4r
==
*-
